X:11
T:Trip to the Cottage. CJF.011
R:Jig
S:C.J.Fox MS, 1829/33, Beverley,E.Yorks.
N:Penultimate note c has # faintly marked above.
B:Kidson Coll.Mitchell Lib.M1805
O:England
A:East Yorkshire
Z:vmp.P J Headford 2000 & 2008
M:6/8
L:1/8
Q:3/8=120
K:G
(B/c/)|\
(dB).B (BG).G|(cA).A (AF).D|(DG).G (FA).A|(GB).BA2(B/c/)|!
(dB).B (BG).G|(cA).A (AF).D|(DG).G (FA).A|(BG).GG2:|!
|:d|(gf).ed2B|(ed).c (Bc).d|(ec).A (dB).G|(FA).FD2d|!
(gf).ed2B|(ed).c (Bc).d|(ef).g (fe).d|(e” D Capo”d).cd2:|

